X: 36063
T: Scartaglen, The
R: reel
M: 4/4
K: Dmajor
|:DFEF D2Ad|cAAG EFGE|DFEF D2Ad|cAGE EDD2|
DFEF D2Ad|cAAG EFGE|Addc dfed|cAGE EDD2:|
|:f2fe fage|fddf afde|f2fe fage|faec Add2|
f2fe fage|fddf afde|fage dfed|cAGE FDD2:|

